!!!!SEGMENT: pl-sa--l-1636--084_anonim--keyboard-piece.krn
!!!id: 17xx:791
!!!COM: Anonim
!!!COM-rism: pe30004985
!!!CDT:
!!!CNT:
!!!OTL: Keyboard piece
!!!PDT:
!!!SMS-siglum: PL-SA
!!!SMS-shelfmark: L 1636
!!!NIFC-rismID: 1001077032
!!!URL-scan: http://repozytorium.nifc.pl/skany/pl-sa-nut--l1636
!!!ONB-nifc: 30r-30v, skan 0033 (s. 7)-0034 (s. 1)
!!!SMS-variant:
!!!SMS-altvar:
**kern	**kern
*part1	*part1
*staff2	*staff1
*I"[Keyboard]	*
*I'keyb	*
*clefC4	*clefC1
*k[b-]	*k[b-]
*M3/4	*M3/4
=1	=1
2.ryy	4a\
.	8b-\L
.	8cc\J
.	4dd\
=2	=2
2.ryy	4b-\
*	*Xtuplet
.	12cc\L
.	12dd\
.	12ee\J
.	4ff\
=3	=3
2.ryy	4cc\
.	4a\
.	4b-\
=4	=4
2.ryy	8ff\L
.	8ee\J
.	4.dd\
.	8cc\
=5	=5
4F/	2dd/
8G/L	.
8A/J	.
4B-\	4b-\
!!LO:LB:g=original
=6	=6
*2\right	*2\right
*	*^
4G/	2.ee/	2b-\
8A/L	.	.
8B-/J	.	.
4c\	.	4b-\
=7	=7	=7
4A/	2.ff/	2.dd\
4F/	.	.
4B-/	.	.
=8	=8	=8
4B-\	2.ee/	2ryy
4G/	.	.
4c\	.	4cc\
=9	=9	=9
2.F/	2.dd/	4f\
.	.	8g\L
.	.	8a\J
.	.	4b-\
*	*v	*v
*clefF4	*
=10	=10
2F\	4gn/
.	2a\
4E\	.
=11	=11
4F\	8cc\L
.	8b-\J
4G\	4.a\
4GG/	.
.	8g\
=12	=12
*	*^
4C/	2.cc/	2a\
8D/L	.	.
8E/J	.	.
4F\	.	4f\
=13	=13	=13
4D\	2.dd/	2b-\
8E\L	.	.
8F\J	.	.
4G\	.	4g\
=14	=14	=14
4E\	2.ee/	2cc\
8F\L	.	.
8G\J	.	.
4A\	.	4a#X\
=15	=15	=15
4F\	2.dd/	2.b-\
4D\	.	.
4F\	.	.
=16	=16	=16
4G\	2.cc/	2b-\
4E\	.	.
4A\	.	4a#X\
*	*v	*v
=17	=17
*^	*
2.F/	2D\	4dd\
.	.	8ee\L
.	.	8ff\J
.	4BB-\	4gg\
*v	*v	*
!!LO:PB:g=original
=18	=18
4C/	4ee\
4BB-/	8ff\L
.	8gg\J
4AA/	4aa\
=19	=19
*^	*
2F/	2BB-\	4b-\
.	.	8cc\L
.	.	8dd\
4G	4GG/	8ee\
.	.	8ff\J
*v	*v	*
=20	=20
2C/	4cc\
.	4a\
4AA/	4ee\
=21	=21
4BB-/	8ff\L
.	8ee\J
4C/	4.dd\
4CC/	.
.	8cc\
=22	=22
2.F 2.C 2.AA 2.FF/	2.dd 2.a 2.f/
!LO:TX:a:t=P:problem:w źródle końcowa kreska taktowa :||:	!LO:TX:a:t=P:problem:w źródle końcowa kreska taktowa :||:
==;;	==;;
*-	*-
!!!system-decoration: s1,s2
!!!EED: Antoni Szymański
!!!EST: 2020-12-08
!!!ENC: Marcin Jachim
!!!END: 2020-06-12
